X: 4218
T: Blueberry Ball, The
R: jig
M: 6/8
K: Dmajor
|:d2 B|A2 d dfd|e2 c efg|af/g/a ged|cec B2 c|
A2 d dfd|e2 c ee/f/g|afa gec|d3:|
|:f2 g|a2 f aba|gef ge/f/g|f2 d add|
[1 cec ee/f/g|afg aba|gef gag|f2 d gec|d3:|
[2 cec B3|Add dff|ecd e2 g|aff gec|d3||

